assets/svg/icon_badge_company.svg

<svg width="24" height="24" viewBox="0 0 24 24" fill="none" xmlns="http://www.w3.org/2000/svg">
<path d="M21.1781 9.64141C20.8219 9.27578 20.4562 8.89141 20.3156 8.56328C20.175 8.23516 20.1844 7.74766 20.175 7.25078C20.1656 6.34141 20.1469 5.30078 19.425 4.57891C18.7031 3.85703 17.6625 3.83828 16.7531 3.82891C16.2562 3.81953 15.75 3.81016 15.4406 3.68828C15.1312 3.56641 14.7281 3.18203 14.3625 2.82578C13.7156 2.20703 12.975 1.50391 12 1.50391C11.025 1.50391 10.2844 2.20703 9.6375 2.82578C9.27188 3.18203 8.8875 3.54766 8.55938 3.68828C8.23125 3.82891 7.74375 3.81953 7.24688 3.82891C6.3375 3.83828 5.29687 3.85703 4.575 4.57891C3.85312 5.30078 3.83437 6.34141 3.825 7.25078C3.81562 7.74766 3.80625 8.25391 3.68437 8.56328C3.5625 8.87266 3.17813 9.27578 2.82188 9.64141C2.20313 10.2883 1.5 11.0289 1.5 12.0039C1.5 12.9789 2.20313 13.7195 2.82188 14.3664C3.17813 14.732 3.54375 15.1164 3.68437 15.4445C3.825 15.7727 3.81562 16.2602 3.825 16.757C3.83437 17.6664 3.85312 18.707 4.575 19.4289C5.29687 20.1508 6.3375 20.1695 7.24688 20.1789C7.74375 20.1883 8.25 20.1977 8.55938 20.3195C8.86875 20.4414 9.27188 20.8258 9.6375 21.182C10.2844 21.8008 11.025 22.5039 12 22.5039C12.975 22.5039 13.7156 21.8008 14.3625 21.182C14.7281 20.8258 15.1125 20.4602 15.4406 20.3195C15.7687 20.1789 16.2562 20.1883 16.7531 20.1789C17.6625 20.1695 18.7031 20.1508 19.425 19.4289C20.1469 18.707 20.1656 17.6664 20.175 16.757C20.1844 16.2602 20.1937 15.7539 20.3156 15.4445C20.4375 15.1352 20.8219 14.732 21.1781 14.3664C21.7969 13.7195 22.5 12.9789 22.5 12.0039C22.5 11.0289 21.7969 10.2883 21.1781 9.64141Z" fill="#FF8E1E"/>
<path d="M11.146 15.5477L16.6397 10.2977C16.7745 10.1589 16.8504 9.97327 16.8515 9.77975C16.8527 9.58622 16.7789 9.39975 16.6458 9.25932C16.5126 9.11889 16.3303 9.03538 16.137 9.02623C15.9437 9.01708 15.7543 9.08302 15.6085 9.21025L10.621 13.9634L8.38975 11.8352C8.31933 11.7627 8.23497 11.7051 8.14173 11.666C8.0485 11.6269 7.94831 11.607 7.84721 11.6076C7.7461 11.6082 7.64615 11.6292 7.55338 11.6694C7.46061 11.7096 7.37692 11.7682 7.30734 11.8415C7.23777 11.9149 7.18375 12.0016 7.14853 12.0964C7.11331 12.1911 7.09762 12.292 7.1024 12.393C7.10718 12.494 7.13233 12.593 7.17634 12.6841C7.22035 12.7751 7.28231 12.8563 7.3585 12.9227L10.1054 15.5477C10.244 15.6808 10.4289 15.7547 10.621 15.754C10.816 15.7552 11.004 15.6814 11.146 15.5477Z" fill="white"/>
</svg>

<svg xmlns="http://www.w3.org/2000/svg" width="24" height="24" fill="none"><path fill="#FF8E1E" d="M21.178 9.641c-.356-.365-.722-.75-.862-1.078s-.132-.815-.141-1.312c-.01-.91-.028-1.95-.75-2.672s-1.762-.74-2.672-.75c-.497-.01-1.003-.019-1.312-.14-.31-.123-.713-.507-1.078-.863-.647-.619-1.388-1.322-2.363-1.322s-1.716.703-2.363 1.322c-.365.356-.75.722-1.078.862s-.815.132-1.312.14c-.91.01-1.95.029-2.672.75-.722.723-.74 1.763-.75 2.673-.01.497-.019 1.003-.14 1.312-.123.31-.507.713-.863 1.078-.619.647-1.322 1.388-1.322 2.363s.703 1.716 1.322 2.362c.356.366.722.75.862 1.079s.132.815.141 1.312c.01.91.028 1.95.75 2.672s1.763.74 2.672.75c.497.01 1.003.019 1.312.14s.713.507 1.079.863c.646.619 1.387 1.322 2.362 1.322s1.716-.703 2.363-1.322c.365-.356.75-.722 1.078-.862s.815-.132 1.312-.141c.91-.01 1.95-.028 2.672-.75s.74-1.763.75-2.672c.01-.497.019-1.003.14-1.313.122-.309.507-.712.863-1.078.619-.646 1.322-1.387 1.322-2.362s-.703-1.716-1.322-2.363"/><path fill="#fff" d="m11.146 15.548 5.494-5.25a.75.75 0 0 0-1.032-1.088l-4.987 4.753-2.231-2.128a.75.75 0 1 0-1.032 1.088l2.747 2.625a.759.759 0 0 0 1.04 0"/></svg>
